assets/images/more.svg

<svg fill="none" height="22" viewBox="0 0 22 22" width="22" xmlns="http://www.w3.org/2000/svg"><g stroke="#121212" stroke-width="1.5"><path d="m4.58333 9.16666c-1.00833 0-1.83333.825-1.83333 1.83334 0 1.0083.825 1.8333 1.83333 1.8333 1.00834 0 1.83334-.825 1.83334-1.8333 0-1.00834-.825-1.83334-1.83334-1.83334z"/><path d="m17.4166 9.16666c-1.0083 0-1.8333.825-1.8333 1.83334 0 1.0083.825 1.8333 1.8333 1.8333 1.0084 0 1.8334-.825 1.8334-1.8333 0-1.00834-.825-1.83334-1.8334-1.83334z"/><path d="m11 9.16666c-1.00831 0-1.83331.825-1.83331 1.83334 0 1.0083.825 1.8333 1.83331 1.8333 1.0084 0 1.8334-.825 1.8334-1.8333 0-1.00834-.825-1.83334-1.8334-1.83334z"/></g></svg>

<svg width="22" height="22" viewBox="0 0 22 22" fill="none" xmlns="http://www.w3.org/2000/svg">
<path d="M4.58333 9.16666C3.575 9.16666 2.75 9.99166 2.75 11C2.75 12.0083 3.575 12.8333 4.58333 12.8333C5.59167 12.8333 6.41667 12.0083 6.41667 11C6.41667 9.99166 5.59167 9.16666 4.58333 9.16666Z" stroke="#121212" stroke-width="1.5"/>
<path d="M17.4166 9.16666C16.4083 9.16666 15.5833 9.99166 15.5833 11C15.5833 12.0083 16.4083 12.8333 17.4166 12.8333C18.425 12.8333 19.25 12.0083 19.25 11C19.25 9.99166 18.425 9.16666 17.4166 9.16666Z" stroke="#121212" stroke-width="1.5"/>
<path d="M11 9.16666C9.99169 9.16666 9.16669 9.99166 9.16669 11C9.16669 12.0083 9.99169 12.8333 11 12.8333C12.0084 12.8333 12.8334 12.0083 12.8334 11C12.8334 9.99166 12.0084 9.16666 11 9.16666Z" stroke="#121212" stroke-width="1.5"/>
</svg>
